src/components/registrationForm/Name.svg

<svg width="18" height="18" viewBox="0 0 18 18" fill="none" xmlns="http://www.w3.org/2000/svg">
<path d="M0 2V16C0 17.1 0.89 18 2 18H16C17.1 18 18 17.1 18 16V2C18 0.9 17.1 0 16 0H2C0.89 0 0 0.9 0 2ZM12 6C12 7.66 10.66 9 9 9C7.34 9 6 7.66 6 6C6 4.34 7.34 3 9 3C10.66 3 12 4.34 12 6ZM3 14C3 12 7 10.9 9 10.9C11 10.9 15 12 15 14V15H3V14Z" fill="#E0E0E0"/>
</svg>

<svg width="18" height="18" fill="none" xmlns="http://www.w3.org/2000/svg"><path d="M0 2v14a2 2 0 002 2h14c1.1 0 2-.9 2-2V2c0-1.1-.9-2-2-2H2a2 2 0 00-2 2zm12 4c0 1.66-1.34 3-3 3S6 7.66 6 6s1.34-3 3-3 3 1.34 3 3zm-9 8c0-2 4-3.1 6-3.1s6 1.1 6 3.1v1H3v-1z" fill="#E0E0E0"/></svg>
